src/images/svg/symbols/markets-stocks-and-indices/american-stocks/stocks-moderna-inc.svg

<svg width="32" height="32" viewBox="0 0 32 32" fill="none" xmlns="http://www.w3.org/2000/svg">
<path d="M0 16C0 7.16344 7.16344 0 16 0C24.8366 0 32 7.16344 32 16C32 24.8366 24.8366 32 16 32C7.16344 32 0 24.8366 0 16Z" fill="#F2F3F4"/>
<g clip-path="url(#clip0_13177_34316)">
<path fill-rule="evenodd" clip-rule="evenodd" d="M2.50781 18.9623C2.50781 18.8655 2.58623 18.7871 2.68296 18.7871H4.1298C4.22652 18.7871 4.30494 18.8655 4.30494 18.9623C4.30494 19.059 4.22652 19.1374 4.1298 19.1374H2.68296C2.58623 19.1374 2.50781 19.059 2.50781 18.9623Z" fill="#A6DFF9"/>
<path fill-rule="evenodd" clip-rule="evenodd" d="M4.79297 18.9623C4.79297 18.8655 4.87138 18.7871 4.96811 18.7871H6.41495C6.51168 18.7871 6.5901 18.8655 6.5901 18.9623C6.5901 19.059 6.51168 19.1374 6.41495 19.1374H4.96811C4.87138 19.1374 4.79297 19.059 4.79297 18.9623Z" fill="#93DAF8"/>
<path fill-rule="evenodd" clip-rule="evenodd" d="M7.07617 18.9623C7.07617 18.8655 7.15459 18.7871 7.25132 18.7871H8.69815C8.79488 18.7871 8.8733 18.8655 8.8733 18.9623C8.8733 19.059 8.79488 19.1374 8.69815 19.1374H7.25132C7.15459 19.1374 7.07617 19.059 7.07617 18.9623Z" fill="#7ED4F7"/>
<path fill-rule="evenodd" clip-rule="evenodd" d="M9.36133 18.9623C9.36133 18.8655 9.43974 18.7871 9.53647 18.7871H10.9833C11.08 18.7871 11.1584 18.8655 11.1584 18.9623C11.1584 19.059 11.08 19.1374 10.9833 19.1374H9.53647C9.43974 19.1374 9.36133 19.059 9.36133 18.9623Z" fill="#6BCFF6"/>
<path fill-rule="evenodd" clip-rule="evenodd" d="M11.6465 18.9623C11.6465 18.8655 11.7249 18.7871 11.8216 18.7871H13.2685C13.3652 18.7871 13.4436 18.8655 13.4436 18.9623C13.4436 19.059 13.3652 19.1374 13.2685 19.1374H11.8216C11.7249 19.1374 11.6465 19.059 11.6465 18.9623Z" fill="#52CBF5"/>
<path fill-rule="evenodd" clip-rule="evenodd" d="M13.9297 18.9623C13.9297 18.8655 14.0081 18.7871 14.1048 18.7871H15.5517C15.6484 18.7871 15.7268 18.8655 15.7268 18.9623C15.7268 19.059 15.6484 19.1374 15.5517 19.1374H14.1048C14.0081 19.1374 13.9297 19.059 13.9297 18.9623Z" fill="#39C6F4"/>
<path fill-rule="evenodd" clip-rule="evenodd" d="M16.2148 18.9623C16.2148 18.8655 16.2933 18.7871 16.39 18.7871H17.8368C17.9336 18.7871 18.012 18.8655 18.012 18.9623C18.012 19.059 17.9336 19.1374 17.8368 19.1374H16.39C16.2933 19.1374 16.2148 19.059 16.2148 18.9623Z" fill="#20C2F3"/>
<path fill-rule="evenodd" clip-rule="evenodd" d="M18.5 18.9623C18.5 18.8655 18.5784 18.7871 18.6751 18.7871H20.122C20.2187 18.7871 20.2971 18.8655 20.2971 18.9623C20.2971 19.059 20.2187 19.1374 20.122 19.1374H18.6751C18.5784 19.1374 18.5 19.059 18.5 18.9623Z" fill="#04BEF2"/>
<path fill-rule="evenodd" clip-rule="evenodd" d="M20.7832 18.9623C20.7832 18.8655 20.8616 18.7871 20.9583 18.7871H22.4052C22.5019 18.7871 22.5803 18.8655 22.5803 18.9623C22.5803 19.059 22.5019 19.1374 22.4052 19.1374H20.9583C20.8616 19.1374 20.7832 19.059 20.7832 18.9623Z" fill="#00BAF2"/>
<path fill-rule="evenodd" clip-rule="evenodd" d="M23.0684 18.9623C23.0684 18.8655 23.1468 18.7871 23.2435 18.7871H24.6903C24.7871 18.7871 24.8655 18.8655 24.8655 18.9623C24.8655 19.059 24.7871 19.1374 24.6903 19.1374H23.2435C23.1468 19.1374 23.0684 19.059 23.0684 18.9623Z" fill="#00B6F1"/>
<path fill-rule="evenodd" clip-rule="evenodd" d="M25.3535 18.9623C25.3535 18.8655 25.4319 18.7871 25.5287 18.7871H26.9755C27.0722 18.7871 27.1506 18.8655 27.1506 18.9623C27.1506 19.059 27.0722 19.1374 26.9755 19.1374H25.5287C25.4319 19.1374 25.3535 19.059 25.3535 18.9623Z" fill="#00B3F0"/>
<path fill-rule="evenodd" clip-rule="evenodd" d="M27.6367 18.9623C27.6367 18.8655 27.7151 18.7871 27.8119 18.7871H29.2587C29.3554 18.7871 29.4338 18.8655 29.4338 18.9623C29.4338 19.059 29.3554 19.1374 29.2587 19.1374H27.8119C27.7151 19.1374 27.6367 19.059 27.6367 18.9623Z" fill="#00AFEF"/>
<path d="M15.1873 12.8711V14.7368C15.0465 14.5229 14.8541 14.348 14.6278 14.2282C14.4016 14.1084 14.1488 14.0476 13.8928 14.0514C13.4206 14.0514 13.0247 14.2189 12.6896 14.554C12.5315 14.7129 12.4069 14.902 12.3232 15.11C12.2395 15.3179 12.1983 15.5406 12.2023 15.7648C12.2023 16.2521 12.3698 16.6557 12.6972 16.9908C13.0171 17.3335 13.4206 17.501 13.8775 17.501C14.1441 17.501 14.3877 17.4401 14.6086 17.3411C14.8218 17.2268 15.0198 17.0669 15.1949 16.8537V17.4172H15.6137V12.8711H15.1873ZM4.14564 14.0133C3.91719 14.0133 3.68874 14.0743 3.47553 14.2037C3.29571 14.3264 3.14283 14.4844 3.02624 14.6682V14.0971H2.60742V17.4172H3.02624V16.0085C3.02624 15.5896 3.07193 15.285 3.14808 15.0794C3.22328 14.8867 3.35292 14.72 3.52122 14.5997C3.68874 14.4855 3.8715 14.4245 4.06188 14.4245C4.22941 14.4245 4.37409 14.4702 4.50354 14.554C4.62359 14.6383 4.71415 14.7582 4.76245 14.8967C4.80814 15.049 4.83099 15.3155 4.83099 15.7191V17.4172H5.24981V16.1227C5.24981 15.6429 5.28788 15.3003 5.36403 15.0947C5.44018 14.8967 5.56963 14.7291 5.73716 14.6073C5.90469 14.4855 6.08745 14.4245 6.29306 14.4245C6.46058 14.4245 6.59765 14.4626 6.71949 14.5464C6.84133 14.6225 6.9251 14.7368 6.9784 14.8662C7.0317 15.0033 7.05455 15.247 7.05455 15.6049V17.4172H7.48099V15.6125C7.48099 15.2013 7.44291 14.8814 7.35915 14.6758C7.28334 14.4763 7.1473 14.3053 6.96991 14.1866C6.79252 14.0679 6.58257 14.0073 6.3692 14.0133C6.13314 14.0133 5.91231 14.0895 5.69909 14.2189C5.49349 14.356 5.31834 14.554 5.17366 14.8129C5.11274 14.6225 5.02897 14.4702 4.94521 14.3636C4.85016 14.2531 4.73006 14.167 4.59492 14.1123C4.45024 14.0438 4.30555 14.0133 4.13803 14.0133H4.14564ZM9.87969 14.0133C9.38472 14.0133 8.97352 14.1961 8.6613 14.5692C8.36363 14.8958 8.20043 15.3229 8.20441 15.7648C8.20441 16.2217 8.3567 16.6329 8.67653 16.9832C8.98113 17.3258 9.38472 17.501 9.87208 17.501C10.0978 17.5075 10.3222 17.4638 10.529 17.3729C10.7358 17.282 10.9198 17.1463 11.0676 16.9756C11.3717 16.6463 11.5379 16.2129 11.5321 15.7648C11.5321 15.3079 11.3875 14.9043 11.0905 14.5616C10.9413 14.3844 10.7546 14.2425 10.5439 14.1464C10.3332 14.0502 10.1037 14.0022 9.87208 14.0057L9.87969 14.0133ZM18.0658 14.0133C17.5327 14.0133 17.1063 14.2189 16.7788 14.6378C16.5275 14.9652 16.4057 15.3383 16.4057 15.7648C16.4057 16.2141 16.558 16.61 16.855 16.9679C17.0061 17.1452 17.196 17.2855 17.4098 17.3779C17.6237 17.4703 17.8559 17.5124 18.0886 17.501C18.5121 17.5071 18.9216 17.3488 19.2308 17.0593C19.3831 16.9222 19.5202 16.7319 19.6268 16.5034L19.2841 16.313C19.1547 16.5339 19.0405 16.6938 18.9262 16.7852C18.682 16.9932 18.3713 17.1066 18.0505 17.105C17.7155 17.105 17.4261 16.9832 17.1977 16.7395C16.9616 16.4882 16.8398 16.176 16.8321 15.7876H19.741C19.741 15.3307 19.6192 14.95 19.3831 14.6454C19.2304 14.442 19.031 14.2784 18.8017 14.1684C18.5724 14.0584 18.32 14.0052 18.0658 14.0133ZM21.6296 14.0133C21.4696 14.0133 21.3173 14.059 21.1727 14.1504C21.0028 14.2649 20.8577 14.4126 20.7462 14.5845V14.0895H20.3046V17.4096H20.7462V16.2978C20.7462 15.7191 20.7767 15.3307 20.83 15.148C20.9061 14.8967 21.0051 14.7139 21.1346 14.5997C21.2492 14.489 21.4017 14.4264 21.561 14.4245C21.6143 14.4245 21.6905 14.4398 21.7895 14.4855L22.0179 14.1199C21.8732 14.0438 21.7514 14.0057 21.6296 14.0057V14.0133ZM24.1425 14.0133C23.8988 14.0133 23.678 14.0666 23.4724 14.1809C23.2522 14.3085 23.0625 14.4826 22.9165 14.6911V14.0895H22.4977V17.4096H22.9165V16.1912C22.9165 15.7572 22.9393 15.4526 22.9774 15.285C23.0383 15.0337 23.1754 14.8281 23.3734 14.653C23.579 14.4778 23.8074 14.3941 24.0587 14.3941C24.2872 14.3941 24.4623 14.455 24.5918 14.5616C24.7406 14.6886 24.8403 14.8637 24.8735 15.0566C24.9116 15.186 24.9268 15.4373 24.9268 15.8257V17.4096H25.3456V15.7115C25.3456 15.2546 25.3 14.9195 25.2086 14.7063C25.1172 14.4931 24.9801 14.3255 24.7898 14.1961C24.5981 14.0689 24.3725 14.0026 24.1425 14.0057V14.0133ZM27.7215 14.0133C27.2722 14.0133 26.8839 14.1809 26.564 14.5159C26.4062 14.6782 26.2818 14.87 26.1982 15.0804C26.1146 15.2907 26.0733 15.5156 26.0767 15.7419C26.0671 16.2027 26.2394 16.6486 26.5564 16.9832C26.714 17.1563 26.9083 17.2919 27.1251 17.3801C27.3419 17.4683 27.5757 17.5069 27.8094 17.4931C28.043 17.4792 28.2706 17.4132 28.4755 17.2999C28.6803 17.1867 28.8572 17.029 28.9932 16.8385V17.4172H29.4044V14.0895H29.0008V14.6987C28.8586 14.4802 28.6652 14.2998 28.4373 14.1732C28.221 14.0619 27.98 14.0069 27.7367 14.0133H27.7215ZM18.0658 14.4169C18.2637 14.4169 18.4465 14.4626 18.614 14.5464C18.7968 14.6225 18.9339 14.7368 19.0405 14.8738C19.1395 15.0109 19.2232 15.186 19.2841 15.4145H16.8702C16.9616 15.1099 17.0834 14.8814 17.251 14.7291C17.4794 14.5235 17.7535 14.4245 18.0658 14.4245V14.4169ZM27.7596 14.4169C28.1175 14.4169 28.4145 14.5464 28.6658 14.8053C28.9018 15.0642 29.0237 15.384 29.0237 15.7724C29.0237 16.0237 28.9704 16.2521 28.8714 16.4501C28.7619 16.6474 28.602 16.812 28.408 16.9271C28.2139 17.0422 27.9928 17.1036 27.7672 17.105C27.5387 17.105 27.3255 17.0441 27.1275 16.9299C26.836 16.7363 26.627 16.4412 26.5411 16.1019C26.4552 15.7627 26.4987 15.4036 26.663 15.0947C26.7666 14.893 26.9237 14.7238 27.1172 14.6055C27.3106 14.4873 27.5329 14.4247 27.7596 14.4245V14.4169ZM9.86446 14.4322C10.2071 14.4322 10.5041 14.5616 10.7478 14.8205C10.9455 15.0365 11.0714 15.3084 11.1083 15.5989C11.1451 15.8893 11.091 16.1841 10.9534 16.4425C10.8517 16.6412 10.6966 16.8078 10.5057 16.9234C10.3147 17.0391 10.0953 17.0993 9.87208 17.0974C9.64883 17.0993 9.42944 17.0391 9.23848 16.9234C9.04751 16.8078 8.89249 16.6412 8.79076 16.4425C8.68047 16.2364 8.62291 16.0062 8.62323 15.7724C8.62323 15.3993 8.74507 15.087 8.98875 14.8205C9.23242 14.5616 9.52179 14.4322 9.87208 14.4322H9.86446ZM13.9156 14.455C14.0889 14.4549 14.2604 14.4896 14.42 14.5571C14.5796 14.6245 14.724 14.7233 14.8447 14.8475C14.9654 14.9718 15.06 15.119 15.1228 15.2805C15.1855 15.442 15.2153 15.6144 15.2102 15.7876C15.2137 16.0242 15.156 16.2577 15.0426 16.4653C14.9239 16.6606 14.7574 16.8224 14.559 16.9356C14.3605 17.0488 14.1365 17.1098 13.908 17.1126C13.6788 17.11 13.4544 17.0466 13.2577 16.9289C13.061 16.8112 12.8992 16.6433 12.7886 16.4425C12.6752 16.2401 12.6157 16.012 12.6157 15.78C12.6157 15.548 12.6752 15.3199 12.7886 15.1175C12.8989 14.9154 13.062 14.747 13.2605 14.6303C13.4589 14.5137 13.6854 14.4531 13.9156 14.455ZM30.0212 14.356H30.0821C30.1126 14.356 30.1354 14.356 30.1431 14.3408C30.1583 14.3408 30.1659 14.3255 30.1659 14.3103L30.1507 14.2875C30.1507 14.2722 30.1507 14.2722 30.1354 14.2646H30.0212V14.356ZM29.9755 14.5312V14.2266H30.1583C30.1811 14.2342 30.1964 14.2494 30.204 14.2646L30.2192 14.3027C30.2192 14.3332 30.204 14.3484 30.1964 14.3636C30.1742 14.3805 30.1479 14.3911 30.1202 14.3941L30.1507 14.4093L30.1964 14.4702L30.2344 14.5312H30.1735L30.1507 14.4778L30.0974 14.4017H30.0288V14.5312H29.9755ZM30.0974 14.1276C30.0593 14.1276 30.0212 14.1352 29.9831 14.1656C29.9451 14.1809 29.9146 14.2113 29.8994 14.2494C29.8764 14.2859 29.8642 14.3281 29.8642 14.3712C29.8642 14.4144 29.8764 14.4566 29.8994 14.4931C29.9146 14.5312 29.9451 14.5616 29.9831 14.5768C30.0212 14.6073 30.0593 14.6149 30.0974 14.6149C30.1431 14.6149 30.1811 14.6073 30.2192 14.5768C30.2573 14.5616 30.2954 14.5312 30.3106 14.4931C30.3258 14.455 30.341 14.4169 30.341 14.3712C30.341 14.3332 30.3258 14.2951 30.3106 14.2494C30.2884 14.2136 30.2568 14.1846 30.2192 14.1656C30.1811 14.1352 30.1431 14.1276 30.0974 14.1276ZM30.0974 14.0895C30.1507 14.0895 30.1964 14.0971 30.2421 14.1199C30.2877 14.1428 30.3182 14.1809 30.3487 14.2266C30.3791 14.2722 30.3867 14.3179 30.3867 14.3789C30.3867 14.4245 30.3791 14.4702 30.3487 14.5159C30.3258 14.5616 30.2877 14.5921 30.2421 14.6225C30.1977 14.6471 30.148 14.6601 30.0974 14.6606C30.0517 14.6606 30.006 14.6454 29.9603 14.6225C29.9146 14.5997 29.8842 14.5616 29.8537 14.5159C29.8308 14.4702 29.8156 14.4245 29.8156 14.3712C29.8156 14.3179 29.8308 14.2722 29.8537 14.2266C29.8842 14.1809 29.9146 14.1504 29.9603 14.1199C30.006 14.0971 30.0593 14.0895 30.0974 14.0895Z" fill="#E51937"/>
</g>
<defs>
<clipPath id="clip0_13177_34316">
<rect width="28" height="6.375" fill="white" transform="translate(2.5 12.8125)"/>
</clipPath>
</defs>
</svg>

<svg width="32" height="32" fill="none" xmlns="http://www.w3.org/2000/svg"><path d="M0 16C0 7.163 7.163 0 16 0s16 7.163 16 16-7.163 16-16 16S0 24.837 0 16Z" fill="#F2F3F4"/><g clip-path="url(#a)"><path fill-rule="evenodd" clip-rule="evenodd" d="M2.508 18.962c0-.096.078-.175.175-.175H4.13a.175.175 0 0 1 0 .35H2.683a.175.175 0 0 1-.175-.175Z" fill="#A6DFF9"/><path fill-rule="evenodd" clip-rule="evenodd" d="M4.793 18.962c0-.096.078-.175.175-.175h1.447a.175.175 0 0 1 0 .35H4.968a.175.175 0 0 1-.175-.175Z" fill="#93DAF8"/><path fill-rule="evenodd" clip-rule="evenodd" d="M7.076 18.962c0-.096.079-.175.175-.175h1.447a.175.175 0 0 1 0 .35H7.251a.175.175 0 0 1-.175-.175Z" fill="#7ED4F7"/><path fill-rule="evenodd" clip-rule="evenodd" d="M9.361 18.962c0-.096.079-.175.175-.175h1.447a.175.175 0 0 1 0 .35H9.536a.175.175 0 0 1-.175-.175Z" fill="#6BCFF6"/><path fill-rule="evenodd" clip-rule="evenodd" d="M11.646 18.962c0-.096.079-.175.176-.175h1.447a.175.175 0 0 1 0 .35h-1.447a.175.175 0 0 1-.175-.175Z" fill="#52CBF5"/><path fill-rule="evenodd" clip-rule="evenodd" d="M13.93 18.962c0-.096.078-.175.175-.175h1.447a.175.175 0 0 1 0 .35h-1.447a.175.175 0 0 1-.175-.175Z" fill="#39C6F4"/><path fill-rule="evenodd" clip-rule="evenodd" d="M16.215 18.962c0-.096.078-.175.175-.175h1.447a.175.175 0 1 1 0 .35H16.39a.175.175 0 0 1-.175-.175Z" fill="#20C2F3"/><path fill-rule="evenodd" clip-rule="evenodd" d="M18.5 18.962c0-.096.078-.175.175-.175h1.447a.175.175 0 0 1 0 .35h-1.447a.175.175 0 0 1-.175-.175Z" fill="#04BEF2"/><path fill-rule="evenodd" clip-rule="evenodd" d="M20.783 18.962c0-.096.079-.175.175-.175h1.447a.175.175 0 0 1 0 .35h-1.447a.175.175 0 0 1-.175-.175Z" fill="#00BAF2"/><path fill-rule="evenodd" clip-rule="evenodd" d="M23.068 18.962c0-.096.079-.175.175-.175h1.447a.175.175 0 1 1 0 .35h-1.447a.175.175 0 0 1-.175-.175Z" fill="#00B6F1"/><path fill-rule="evenodd" clip-rule="evenodd" d="M25.354 18.962c0-.096.078-.175.175-.175h1.447a.175.175 0 0 1 0 .35h-1.447a.175.175 0 0 1-.175-.175Z" fill="#00B3F0"/><path fill-rule="evenodd" clip-rule="evenodd" d="M27.637 18.962c0-.096.078-.175.175-.175h1.447a.175.175 0 0 1 0 .35h-1.447a.175.175 0 0 1-.175-.175Z" fill="#00AFEF"/><path d="M15.187 12.871v1.866a1.523 1.523 0 0 0-1.294-.686c-.472 0-.868.168-1.203.503a1.675 1.675 0 0 0-.488 1.21c0 .488.168.892.495 1.227.32.343.724.51 1.18.51.267 0 .51-.06.732-.16.213-.114.41-.274.586-.487v.563h.419v-4.546h-.427ZM4.146 14.013c-.229 0-.457.061-.67.19a1.6 1.6 0 0 0-.45.465v-.57h-.419v3.32h.42v-1.41c0-.418.045-.723.121-.929.075-.192.205-.359.373-.48a.952.952 0 0 1 .54-.175c.168 0 .313.046.443.13a.7.7 0 0 1 .258.343c.046.152.069.418.069.822v1.698h.419v-1.294c0-.48.038-.823.114-1.028.076-.198.206-.366.373-.488a.918.918 0 0 1 .556-.182.72.72 0 0 1 .426.121c.122.077.206.19.26.32.053.137.076.381.076.739v1.812h.426v-1.805c0-.41-.038-.73-.122-.936a1.028 1.028 0 0 0-.99-.663 1.28 1.28 0 0 0-.67.206 1.68 1.68 0 0 0-.525.594 1.45 1.45 0 0 0-.229-.45.915.915 0 0 0-.35-.25 1.028 1.028 0 0 0-.457-.1h.008Zm5.734 0c-.495 0-.906.183-1.219.556-.297.327-.46.754-.457 1.196 0 .457.153.868.473 1.218.304.343.708.518 1.195.518a1.524 1.524 0 0 0 1.196-.525c.304-.33.47-.763.464-1.211 0-.457-.145-.86-.441-1.203a1.562 1.562 0 0 0-1.219-.556l.008.007Zm8.186 0c-.533 0-.96.206-1.287.625-.252.327-.373.7-.373 1.127 0 .45.152.845.449 1.203a1.523 1.523 0 0 0 1.234.533c.423.006.833-.152 1.142-.442.152-.137.29-.327.396-.556l-.343-.19c-.13.22-.243.38-.358.472a1.34 1.34 0 0 1-.875.32c-.335 0-.625-.122-.853-.366-.236-.25-.358-.563-.366-.951h2.909c0-.457-.122-.838-.358-1.143a1.583 1.583 0 0 0-1.317-.632Zm3.564 0a.842.842 0 0 0-.457.137c-.17.115-.315.263-.427.434v-.495h-.441v3.32h.441v-1.111c0-.579.03-.967.084-1.15.076-.251.175-.434.305-.548a.624.624 0 0 1 .426-.175c.053 0 .13.015.229.06l.228-.365a.828.828 0 0 0-.388-.114v.007Zm2.512 0c-.243 0-.464.054-.67.168a1.75 1.75 0 0 0-.556.51v-.602h-.418v3.32h.418v-1.218c0-.434.023-.738.061-.906.061-.251.198-.457.396-.632.206-.175.434-.259.686-.259.228 0 .403.061.533.168a.838.838 0 0 1 .282.495c.038.129.053.38.053.769v1.584h.419V15.71c0-.456-.046-.792-.137-1.005a1.145 1.145 0 0 0-.42-.51 1.143 1.143 0 0 0-.647-.19v.007Zm3.58 0c-.45 0-.838.168-1.158.503a1.722 1.722 0 0 0-.487 1.226c-.01.46.162.907.48 1.241a1.568 1.568 0 0 0 2.436-.145v.58h.411v-3.329h-.403v.61a1.598 1.598 0 0 0-.564-.526 1.448 1.448 0 0 0-.7-.16h-.015Zm-9.656.404c.198 0 .38.046.548.13.183.075.32.19.427.327.099.137.182.312.243.54H16.87c.092-.304.213-.533.381-.685.228-.205.502-.304.815-.304v-.008Zm9.694 0c.357 0 .654.13.906.388.236.26.358.579.358.967 0 .252-.054.48-.153.678a1.273 1.273 0 0 1-1.104.655c-.228 0-.441-.06-.64-.175a1.409 1.409 0 0 1-.464-1.835 1.234 1.234 0 0 1 1.097-.67v-.008Zm-17.896.015c.343 0 .64.13.884.388a1.417 1.417 0 0 1 .205 1.622 1.203 1.203 0 0 1-1.08.655 1.203 1.203 0 0 1-1.082-.655 1.416 1.416 0 0 1-.168-.67c0-.373.122-.685.366-.952.243-.258.533-.388.883-.388h-.008Zm4.052.023a1.293 1.293 0 0 1 1.294 1.333c.004.236-.054.47-.167.677a1.347 1.347 0 0 1-1.135.648 1.295 1.295 0 0 1-1.12-.67 1.355 1.355 0 0 1 0-1.326 1.272 1.272 0 0 1 1.128-.662Zm16.105-.099h.061c.03 0 .053 0 .061-.015.015 0 .023-.015.023-.03l-.015-.024c0-.015 0-.015-.016-.022h-.114v.091Zm-.046.175v-.304h.183a.078.078 0 0 1 .046.038l.015.038c0 .03-.015.045-.023.06a.153.153 0 0 1-.076.031l.03.015.046.061.038.061h-.06l-.023-.053-.054-.076h-.068v.13h-.053Zm.122-.403a.172.172 0 0 0-.114.038.151.151 0 0 0-.084.083.228.228 0 0 0 0 .244.15.15 0 0 0 .084.084c.038.03.076.038.114.038a.179.179 0 0 0 .122-.038.164.164 0 0 0 .092-.084c.015-.038.03-.076.03-.122 0-.038-.015-.076-.03-.122a.23.23 0 0 0-.092-.083.18.18 0 0 0-.122-.038Zm0-.039a.31.31 0 0 1 .145.03.288.288 0 0 1 .107.108c.03.045.038.09.038.152a.235.235 0 0 1-.038.137.287.287 0 0 1-.252.145.286.286 0 0 1-.282-.29c0-.053.016-.099.039-.144a.357.357 0 0 1 .106-.107.321.321 0 0 1 .137-.03Z" fill="#E51937"/></g><defs><clipPath id="a"><path fill="#fff" transform="translate(2.5 12.813)" d="M0 0h28v6.375H0z"/></clipPath></defs></svg>
